src/img/icons.svg

<svg aria-hidden="true" style="position: absolute; width: 0; height: 0; overflow: hidden;" version="1.1" xmlns="http://www.w3.org/2000/svg" xmlns:xlink="http://www.w3.org/1999/xlink">
<defs>
<symbol id="icon-comment" viewBox="0 0 32 32">
<path d="M16 6c-1.717 0-3.375 0.271-4.928 0.804-1.46 0.502-2.76 1.211-3.863 2.108-2.069 1.681-3.209 3.843-3.209 6.088 0 1.259 0.35 2.481 1.039 3.63 0.711 1.185 1.781 2.268 3.093 3.133 0.949 0.625 1.587 1.623 1.755 2.747 0.056 0.375 0.091 0.753 0.105 1.129 0.233-0.194 0.461-0.401 0.684-0.624 0.755-0.755 1.774-1.172 2.828-1.172 0.168 0 0.336 0.011 0.505 0.032 0.655 0.083 1.325 0.126 1.99 0.126 1.717 0 3.375-0.271 4.928-0.804 1.46-0.502 2.76-1.211 3.863-2.108 2.069-1.681 3.209-3.843 3.209-6.088s-1.14-4.407-3.209-6.088c-1.104-0.897-2.404-1.606-3.863-2.108-1.553-0.534-3.211-0.804-4.928-0.804zM16 2v0c8.837 0 16 5.82 16 13s-7.163 13-16 13c-0.849 0-1.682-0.054-2.495-0.158-3.437 3.437-7.539 4.053-11.505 4.144v-0.841c2.142-1.049 4-2.961 4-5.145 0-0.305-0.024-0.604-0.068-0.897-3.619-2.383-5.932-6.024-5.932-10.103 0-7.18 7.163-13 16-13z"></path>
</symbol>
<symbol id="icon-download" viewBox="0 0 32 32">
<path d="M23 14l-8 8-8-8h5v-12h6v12zM15 22h-15v8h30v-8h-15zM28 26h-4v-2h4v2z"></path>
</symbol>
<symbol id="icon-view" viewBox="0 0 32 32">
<path d="M16 6c-6.979 0-13.028 4.064-16 10 2.972 5.936 9.021 10 16 10s13.027-4.064 16-10c-2.972-5.936-9.021-10-16-10zM23.889 11.303c1.88 1.199 3.473 2.805 4.67 4.697-1.197 1.891-2.79 3.498-4.67 4.697-2.362 1.507-5.090 2.303-7.889 2.303s-5.527-0.796-7.889-2.303c-1.88-1.199-3.473-2.805-4.67-4.697 1.197-1.891 2.79-3.498 4.67-4.697 0.122-0.078 0.246-0.154 0.371-0.228-0.311 0.854-0.482 1.776-0.482 2.737 0 4.418 3.582 8 8 8s8-3.582 8-8c0-0.962-0.17-1.883-0.482-2.737 0.124 0.074 0.248 0.15 0.371 0.228v0zM16 13c0 1.657-1.343 3-3 3s-3-1.343-3-3 1.343-3 3-3 3 1.343 3 3z"></path>
</symbol>
<symbol id="icon-like" viewBox="0 0 32 32">
<path d="M23.6 2c-3.363 0-6.258 2.736-7.599 5.594-1.342-2.858-4.237-5.594-7.601-5.594-4.637 0-8.4 3.764-8.4 8.401 0 9.433 9.516 11.906 16.001 21.232 6.13-9.268 15.999-12.1 15.999-21.232 0-4.637-3.763-8.401-8.4-8.401z"></path>
</symbol>
</defs>
</svg>

<svg xmlns="http://www.w3.org/2000/svg" aria-hidden="true" style="position:absolute;width:0;height:0;overflow:hidden">
  <defs>
    <symbol id="icon-comment" viewBox="0 0 32 32">
      <path d="M16 6c-1.717 0-3.375.271-4.928.804-1.46.502-2.76 1.211-3.863 2.108C5.14 10.593 4 12.755 4 15c0 1.259.35 2.481 1.039 3.63.711 1.185 1.781 2.268 3.093 3.133a3.996 3.996 0 0 1 1.755 2.747c.056.375.091.753.105 1.129.233-.194.461-.401.684-.624a4 4 0 0 1 3.333-1.14c.655.083 1.325.126 1.99.126 1.717 0 3.375-.271 4.928-.804 1.46-.502 2.76-1.211 3.863-2.108 2.069-1.681 3.209-3.843 3.209-6.088s-1.14-4.407-3.209-6.088c-1.104-.897-2.404-1.606-3.863-2.108a15.118 15.118 0 0 0-4.928-.804zm0-4c8.837 0 16 5.82 16 13s-7.163 13-16 13a19.66 19.66 0 0 1-2.495-.158C10.068 31.279 5.966 31.895 2 31.986v-.841C4.142 30.096 6 28.184 6 26c0-.305-.024-.604-.068-.897C2.313 22.72 0 19.079 0 15 0 7.82 7.163 2 16 2z"/>
    </symbol>
    <symbol id="icon-download" viewBox="0 0 32 32">
      <path d="m23 14-8 8-8-8h5V2h6v12zm-8 8H0v8h30v-8H15zm13 4h-4v-2h4v2z"/>
    </symbol>
    <symbol id="icon-view" viewBox="0 0 32 32">
      <path d="M16 6C9.021 6 2.972 10.064 0 16c2.972 5.936 9.021 10 16 10s13.027-4.064 16-10c-2.972-5.936-9.021-10-16-10zm7.889 5.303A15.212 15.212 0 0 1 28.559 16a15.223 15.223 0 0 1-4.67 4.697C21.527 22.204 18.799 23 16 23s-5.527-.796-7.889-2.303A15.212 15.212 0 0 1 3.441 16a15.223 15.223 0 0 1 5.041-4.925 8 8 0 1 0 15.036 0c.124.074.248.15.371.228zM16 13a3 3 0 1 1-6 0 3 3 0 0 1 6 0z"/>
    </symbol>
    <symbol id="icon-like" viewBox="0 0 32 32">
      <path d="M23.6 2c-3.363 0-6.258 2.736-7.599 5.594C14.659 4.736 11.764 2 8.4 2 3.763 2 0 5.764 0 10.401c0 9.433 9.516 11.906 16.001 21.232C22.131 22.365 32 19.533 32 10.401 32 5.764 28.237 2 23.6 2z"/>
    </symbol>
  </defs>
</svg>
